dist/img/icon-service-card-1.svg

<svg width="80" height="80" viewBox="0 0 80 80" fill="none" xmlns="http://www.w3.org/2000/svg">
<rect width="80" height="80" rx="16" fill="#F4F5F6"/>
<path d="M47 21L28.5 32.5" stroke="#393939"/>
<path d="M40.5 40V62" stroke="#393939" stroke-width="1.8"/>
<path d="M52.5 24L34 35.5" stroke="#393939"/>
<path d="M28 33V38.8813C28 38.9545 28.04 39.0218 28.1042 39.0569L33.2042 41.8387C33.3375 41.9114 33.5 41.8149 33.5 41.6631V36.5" stroke="#393939"/>
<path d="M49 51.5L55.5 48" stroke="#83C150" stroke-width="1.7" stroke-linecap="round"/>
<path d="M51.5 46L55.5 44" stroke="#83C150" stroke-width="1.7" stroke-linecap="round"/>
<path d="M21 28.5L40.3997 39.9408C40.4617 39.9774 40.5386 39.9778 40.601 39.9419L60.5 28.5" stroke="#393939" stroke-width="1.8"/>
<path d="M21 28.6142V50.8832C21 50.9554 21.0389 51.0219 21.1017 51.0574L40.4017 61.9446C40.4627 61.979 40.5373 61.979 40.5983 61.9446L59.8983 51.0574C59.9611 51.0219 60 50.9554 60 50.8832V28.6142C60 28.5434 59.9626 28.4779 59.9016 28.442L40.6016 17.0599C40.5389 17.0229 40.4611 17.0229 40.3984 17.0599L21.0984 28.442C21.0374 28.4779 21 28.5434 21 28.6142Z" stroke="#393939" stroke-width="1.8"/>
</svg>

<svg width="80" height="80" fill="none" xmlns="http://www.w3.org/2000/svg"><rect width="80" height="80" rx="16" fill="#F4F5F6"/><path d="M47 21L28.5 32.5" stroke="#393939"/><path d="M40.5 40v22" stroke="#393939" stroke-width="1.8"/><path d="M52.5 24L34 35.5M28 33v5.881a.2.2 0 00.104.176l5.1 2.782a.2.2 0 00.296-.176V36.5" stroke="#393939"/><path d="M49 51.5l6.5-3.5m-4-2l4-2" stroke="#83C150" stroke-width="1.7" stroke-linecap="round"/><path d="M21 28.5l19.4 11.44a.2.2 0 00.201.002L60.5 28.5" stroke="#393939" stroke-width="1.8"/><path d="M21 28.614v22.27a.2.2 0 00.102.173l19.3 10.888a.2.2 0 00.196 0l19.3-10.888a.2.2 0 00.102-.174V28.614a.2.2 0 00-.098-.172l-19.3-11.382a.2.2 0 00-.204 0l-19.3 11.382a.2.2 0 00-.098.172z" stroke="#393939" stroke-width="1.8"/></svg>
